X: 16
T: Prenes a Gard
T: for three
C: 
N: 
N: Drone: F/C
K: C major
M: 6/8
L: 1/8
P: A (3x)
F2F F2F | C2C C2C | F3 AG2 | F6 "^(3)":| \
P: B
c3 A3 | d3 c3 | A2G AG2 | F6 |: 
P: C (3x)
C3 C3 | F3 F3 "^(3)":| \
P: D
A3 B3 | c3 c3 | A2_B AG2 | F6 || \
P: E
F2C F2C | F2G F3 || \
P: F
A3 B3 | c3 |] 

